X:1
T:Jabberwocky
T:Philip Legge
T:Lewis Carroll
T:Jabberwocky
T:Copyright © 2010 Philip Legge All rights reserved.
T:Copyright © 2010 Philip Legge All rights reserved.
T:Copyright © 2010 Philip Legge All rights reserved.
T:Copyright © 2010 Philip Legge All rights reserved.
T:Copyright © 2010 Philip Legge All rights reserved.
T:Copyright © 2010 Philip Legge All rights reserved.
T:Copyright © 2010 Philip Legge All rights reserved.
T:Copyright © 2010 Philip Legge All rights reserved.
T:Copyright © 2010 Philip Legge All rights reserved.
T:Copyright © 2010 Philip Legge All rights reserved.
T:Copyright © 2010 Philip Legge All rights reserved.
C:Philip Legge
Z:Lewis Carroll
Z:Copyright © 2010 Philip Legge
Z:All rights reserved.
%%score [ ( 1 2 ) 3 4 5 ]
L:1/8
Q:1/4=120
M:4/4
K:G
V:1 treble nm="Soprano" snm="S."
V:2 treble 
V:3 treble nm="Alto" snm="A."
V:4 treble-8 transpose=-12 nm="Tenor" snm="T."
V:5 bass nm="Bass" snm="B."
V:1
 z4 z2 G2 | d d3 B2 A2 | G2 A2 E4 | (3G2 F2 G2 (3(B2 A2) B2 | G2 G2 d3 z | z d3 G2 G2 | %6
w: ’Twas|bril- lig, and the|sly- thy toves|Did gyre and gim- * ble|in the wabe:|All mim- sy|
 (3(B2 A2) B2 (3(G2 F2) G2 | E4 A2 G2 | (A2 B2) d3 d | G2 z2 z4 || %10
w: were _ the bo- * ro-|goves, and the|mome _ raths out-|grabe.|
[M:12/8]!p!"^Verse 2 (solo, Andante)"[Q:1/4=80] (2:3:1!fermata!G8- | (2:3:3G2 B4 G2 | (2:3:1F8 | %13
w: bouche~fermée|||
 (2:3:2G6 A2 | (2:3:2G2 B6- | (2:3:2B2"^128" !fermata!G6 || %16
w: |||
[M:12/8]"^128""^Verse 3 (tutti, l’istesso tempo)" z z!mp! E G2 A B2 A B2 c | B6 z6 | %18
w: He took his vor- pal sword in|hand:|
 FGA B2 A (G3- GF)G | F2 z z3 z6 |!mf! GFG EFG (cB)A G3- | G3 B3!<(! c2 c B2!<)! z | %22
w: Long time the manx- ome foe _ _ he|sought—|So rest- ed he by the Tum- * tum tree,|_ the Tum- tum tree,|
!f! dgd edc (dc)B (AG)!p!"^subito, slightly detached"!wedge!F | %23
w: So rest- ed he by the Tum- * tum tree, * And|
 !wedge!E2 !wedge!F !wedge!F2 !wedge!D !wedge!E2 z z3 || %24
w: stood a while in thought.|
"^più"!p!"^Verse 4 (un poco agitato)" EEE G2 E F2 D B,2"^cresc." E | G2 A B2!<(! B c2 c B2!<)! c | %26
w: And, as in uff- ish thought he stood, the|Jab- ber- wock with eyes of flame, Came|
 c/c/B/B/A/A/ F/F/A/A/E/E/ F/F/D/D/G/G/ G/G/F/F/!f!G | B2 G F2 G G3- G z z || %28
w: whiffle _ whiffle _ whiffle _ whiffle _ whiffle _ whiffle _ whiffle _ whiffle _ whiffle _ whiffle _ whiffle _ and|burb- led as it came! _|
!ff!"^Verse 5 (marcato)" !>!_e!>!e z !>!d!>!dd (cA)B c2 d | %29
w: One, two! One two! And through _ and through The|
 c>(Bc/d/) _e>(de/=f/) !>!g/!>!^f/!>!g z z3 | gf/e/d Bcd e3 ^d3 | %31
w: vor- pal _ _ blade went _ _ snick- er- snack!|He left it dead, and with its head He|
 =d>(cB/c/) d(c/d/e/f/) (!>!gd/c/B/A/)!ff! (!>!G/!>!F/)!>!G"^44" z || %32
w: went ga- * * lumph- ing _ _ _ back! _ _ _ _ ga- * lumph!|
[M:4/4]"^44"!p!"^bouche fermée" G6 F2 | G8- | G8- | G2 F2 G2!mp! G2 || %36
w: |||* * * ’Twas|
[M:4/4][Q:1/4=60] d d3 B2 A2 | G2 A2 E4 | (3G2 F2 G2 (3(B2 A2) B2 | G2 G2 d3 z | %40
w: bril- lig, and the|sly- thy toves|Did gyre and gim- * ble|in the wabe:|
 z d3"^dim." G2 G2 | (3(B2 A2) B2 (3(G2 F2) G2 | E4!pp!"^rit." A2 G2 | (A2 B2) d3 d | %44
w: All mim- sy|were _ the bo- * ro-|goves, And the|mome _ raths out-|
!>(! !fermata!G8!>)! |] %45
w: grabe.|
V:2
 x8 | x8 | x8 | x8 | x8 | x8 | x8 | x8 | x8 | x8 ||[M:12/8] (2:3:2!fermata!E4 D4 | (2:3:3E2 F4 E2 | %12
 (2:3:2^C4 ^D4 | (2:3:1=D8 | (2:3:3E2 F4 E2 | (2:3:2D4 !fermata!E4 ||[M:12/8] x12 | x12 | x12 | %19
 x12 | x12 | x12 | x12 | x12 || x12 | x12 | x12 | x12 || x12 | x12 | x12 | x12 ||[M:4/4] x8 | x8 | %34
 x8 | x8 ||[M:4/4] x8 | x8 | x8 | x8 | x8 | x8 | x8 | x8 | x8 |] %45
V:3
 z8 | z8 | z8 | z8 | z8 | z8 | z8 | z8 | z8 | z8 ||[M:12/8] z12 | z12 | z12 | z12 | z12 | z12 || %16
w: ||||||||||||||||
[M:12/8]"^128"!mp! (E6 D3- D2) z | z z E G2 B A2 G F2 E | (D6 E3) z3 | DFG E2 E!<(! (G3- GF)!<)!E | %20
w: He, _ _|He took his vor- pal sword in|hand: _|Long time the manx- ome foe _ _ he|
 (D6 C2 D E2) z |!mf! EFG FGF!<(! G2 F!<)! (G3- | G2!f! B) cBc B2 F D2!p!"^subito" !wedge!B, | %23
w: sought— * * *|So rest- ed he by the Tum- tum tree,|_ _ he by the Tum- tum tree, And|
 !wedge!B,2 !wedge!D !wedge!D2 !wedge!B, !wedge!B,2 z z3 || %24
w: stood a while in thought.|
"^più"!p! B,B,B,!<(! B,/^A,/B,/A,/B,/A,/!<)! B,2 B,!<(! B,/A,/B,/A,/B,/!<)!A,/ | %25
w: And, as in uff _ _ _ _ _ _ he stood, _ _ _ _ _|
"^cresc." B,2 F G2!<(! G G2 G G2!<)! G | G/G/G/G/G/G/ F/F/F/F/E/E/ F/F/D/D/E/E/ D/D/D/D/E/E/ | %27
w: Jab- ber- wock with eyes of flame, Came|whiffle _ whiffle _ whiffle _ whiffle _ whiffle _ whiffle _ whiffle _ whiffle _ whiffle _ whiffle _ whiffle _ whiffle _|
!f! G2 E D2 B, B,3- B, z z || !>!G!>!G z !>!G!>!G z !>!_E!>!E z !>!E!>!E z | %29
w: burb- led as it came! _|One, two! One two! One two! One, two!|
 !>!_E!>!E z !>!_A!>!A z !>!=B/!>!c/!>!B !>!G,/!>!F,/ !>!G, z z | BA/G/G z A/G/F z G/F/E z F/E/^D | %31
w: One, two! One, two! snick- er- snack! snick- er- snack!|He left it dead, left it dead, left it dead, left it dead,|
 z (!>!B/!>!A/)!>!G z (!>!F/!>!G/)!>!A z (B/A/)(G/F/)!ff! !>!D/!>!C/!>!D"^44" z || %32
w: Ga- * lumph, ga- * lumph, ga- * lumph, * ga- * lumph!|
[M:4/4]"^44"!p!"^bouche fermée" E2 C2 B,2 D2 | B,2 C2 D2 E2 | D2 C2 B,2 E2 | D4 B,2!p! D2 || %36
w: |||* * ’Twas|
[M:4/4] C2 B,4 C2 | D2 C6 | B,4 (3(D2 E2) D2 | E4 B,4 | A,4 B,4 |"^dim." E4 (3(D2 E2) D2 | %42
w: bril- lig, and|sly- thy|toves gim- * ble|in the|wabe: mim-|sy bo- * ro-|
 B,4!pp! C4- | C2 D2 C2 B,2- |!>(! B,2 C2!>)! !fermata!D4 |] %45
w: goves, And|_ the mome raths|_ out- grabe.|
V:4
 z8 | z8 | z8 | z8 | z8 | z8 | z8 | z8 | z8 | z8 ||[M:12/8] z12 | z12 | z12 | z12 | z12 | z12 || %16
w: ||||||||||||||||
[M:12/8]"^128" z z!mp! G B2 e f2 d f2 g | (e3 d3 ^c6) | Bdf d2 B (=c3- cd)e | %19
w: He took his vor- pal sword in|hand: _ _|Long time the manx- ome foe _ _ he|
 (B3 c3!<(! B3!<)! c3) |!mf! BAB GAB (ed)c B2 z | cBc dcd!<(! e2 d d2!<)! z | %22
w: sought— * * *|So rest- ed he by the Tum- * tum tree,|So rest- ed he by the Tum- tum tree,|
!f! Bdg gfe f2 d B2!p!"^subito" !wedge!A | !wedge!G2 !wedge!B !wedge!A2 !wedge!F !wedge!G2 z z3 || %24
w: So rest- ed he by the Tum- tum tree, And|stood a while in thought.|
"^più"!p! GGG e2 G d2 G F2"^cresc." G | e2 ^d!<(! e/d/e/d/e/d/!<)! e2 c!<(! e/d/e/d/e/!<)!f/ | %26
w: And, as in uff- ish thought he stood, the|Jab- ber- wock _ _ _ _ _ _ of flame _ _ _ _ _|
!f! (gf)e (dc)B A2 B B2 B | d/d/d/d/B/B/ B/B/A/A/e/e/ d/d/e/e/f/f/ g/G/ z z || %28
w: whiff- * ling through _ the tul- gey wood, and|burble _ burble _ burble _ burble _ burble _ burble _ burble _ burble _ burble _ burble! _|
 !>!c!>!c z !>!B!>!B z !>!c!>!c z !>!c!>!c z | %29
w: One, two! One two! One two! One, two!|
 !>!c!>!c z !>!B!>!B z !>!d/!>!_e/!>!d !>!D/!>!_E/ !>!D z z | dd/e/d z d/d/c z B/B/B z B/B/B | %31
w: One, two! One, two! snick- er- snack! snick- er- snack!|He left it dead, left it dead, left it dead, left it dead,|
 z !>!d!>!d z !>!d!>!c z !>!d!>!d!ff! (!>!B/!>!d/)!>!B z ||[M:4/4] (3:2:8z3!mf! e3 d(cB) (AB)c | %33
w: Ga- lumph, ga- lumph, ga- lumph, ga- * lumph!|“And hast thou _ slain _ the|
 (3:2:12!>!B/!>!c/!>!d z edc (BA)G c2 c | (3:2:12B B2 e(dc) BAG z AB/c/ | %35
w: Jab- ber- wock? Come to my arms, _ my beam- ish|boy! O frab- jous _ day! Cal- looh! Cal- lay!” He|
 (3:2:8B(cd) (cB)A G3 z3 ||[M:4/4]"^44" z2!mp! G2 d d3 | B2 A2 G2 A2 | E4 (3G2 F2 G2 | %39
w: chor- tled _ in _ his joy.|’Twas bril- lig,|and the sly- thy|toves Did gyre and|
 (3(B2 A2) B2 G2 G2 | d3 z z d3 |"^dim." G2 G2 (3(B2 A2) B2 | (3(G2 F2) G2!pp! E4 | A2 G2 (A2 B2) | %44
w: gim- * ble in the|wabe: All|mim- sy were _ the|bo- * ro- goves,|And the mome _|
!>(! d3 d!>)! !fermata!G4 |] %45
w: raths out- grabe.|
V:5
 z4 z2 G,2 | [D,D] [D,D]3 [B,D]2 [A,C]2 | [G,B,]2 [F,C]2 [E,G,]4 | %3
w: ’Twas|bril- lig, and the|sly- thy toves|
 (3[D,B,]2 [C,A,]2 [E,B,]2 (3(([D,G,]2 [C,F,]2)) [D,G,]2 | [C,E,]2 [C,E,]2 (([D,F,]2 [F,A,]2)) | %5
w: Did gyre and gim- * ble|in the wabe: *|
 (([F,A,]2 [D,F,]2)) [C,E,]2 [C,E,]2 | %6
w: All * mim- sy|
 (3(([D,G,]2 [C,F,]2)) [D,G,]2 (3(([E,B,]2 [C,A,]2)) [D,B,]2 | [E,G,]4 [F,C]2 [G,B,]2 | %8
w: were _ the bo- * ro-|goves, and the|
 (([A,C]2 [B,D]2)) [D,D]3 [D,D] | G,2 z2"^128" z4 || %10
w: mome _ raths out-|grabe.|
[M:12/8]"^128" !fermata!z z"^Bass solo (quasi misterioso)" E, G,2 A, _B,A,G,- G,3 | %11
w: “Be- ware the Jab- ber- wock, _|
 E,3 ^D,2 z z D,2 (E,F,)G, | F,2 F, (G,A,)^A, B,3 z3 | z3 B,3 (_B,A,)G, F, F,2 | %14
w: my son! The jaws _ that|bite, the claws _ that catch!|Be- ware _ the Jub- jub|
 (G,F,)E, ^D,2 z z D,2 (E,3 | G,3- G,)A,_B, A, G,2 E, z !fermata!z || %16
w: bird, _ and shun The fru-|* * mi- ous Ban- der- snatch!”|
[M:12/8]!mp!"^Tutti" (E,3- E,2 C, B,,2) z z3 | z z G, B,2 G, F,2 E, F,2 ^A, | B,6 z6 | %19
w: He, _ _ _|He took his vor- pal sword in|hand:|
 B,=A,G, A,2 G,!<(! (E,3- E,D,)!<)!E, | (G,6- G,2 F, E,2) z | %21
w: Long time the manx- ome foe _ _ he|sought— * * *|
!mf! C,D,E, B,,E,D,!<(! (C,B,,)A,,!<)! G,,3- | G,,3!f! G,3 B,2 B,, B,,2!p!"^subito" !wedge!D, | %23
w: So rest- ed he by the Tum- * tum tree,|_ he, Tum- tum tree, And|
 !wedge!E,2 !wedge!B,, !wedge!F,2 !wedge!B,, !wedge!E,2 z z3 || %24
w: stood a while in thought.|
"^più"!p! B,,/^A,,/!<(!B,,/A,,/B,,/A,,/!<)! B,, z z!<(! B,,/A,,/B,,/A,,/B,,/A,,/!<)! B,, z z | %25
w: And _ _ _ _ _ _ thought _ _ _ _ _ _|
"^cresc." E,/^D,/!<(!E,/D,/E,/D,/ E,!<)! z z!<(! E,/D,/E,/D,/E,/F,/ G,!<)! z!f! C | %26
w: Jab _ _ _ _ _ _ eyes _ _ _ _ _ _ Came|
 (ED)C (B,A,)G, F,2 E, B,,2 G,, | %27
w: whiff- * ling through _ the tul- gey wood, and|
 G,/G,/D,/D,/E,/E,/ B,,/B,,/D,/D,/E,/E,/ G,/G,/E,/E,/D,/D,/ G,/G,,/ z z || %28
w: burble _ burble _ burble _ burble _ burble _ burble _ burble _ burble _ burble _ burble! _|
 !>!C,!>!C, z !>!G,!>!G, z !>!F,F, z !>!G,!>!G, z | %29
w: One, two! One two! One, two! One, two!|
 !>!_A,!>!A, z !>!=F,!>!F, z !>!G,/!>!A,/!>!G, !>!G,,/!>!_A,,/ !>!G,, z z | %30
w: One, two! One, two! snick- er- snack! snick- er- snack!|
 G,A,/B,/B, z F,/G,/A, z E,/F,/G, z ^D,/E,/F, | %31
w: He left it dead, left it dead, left it dead, left it dead,|
 !>!G,!>!G,, z !>!D,!>!A, z !>!G,!>!G,, z!ff! (!>!G,/!>!A,/)!>!G,"^44" z || %32
w: Ga- lumph, ga- lumph, ga- lumph, ga- * lumph!|
[M:4/4]"^44"!p!"^bouche fermée" C,4 G,2 D,2 | G,,2 C,2 G,,2 C,2 | G,2 E,2 G,2 C,2 | %35
w: |||
 (3:2:6G,/G,/G,/G,/G,/G,/ (3:2:6D,/D,/D,/D,/D,/D,/ (3:2:4G,,/G,,/ z z!p! B,2 || %36
w: chortle _ chortle _ chortle _ chortle _ chortle _ chortle _ chortle _ ’Twas|
[M:4/4] A,2 G,4 F,2 | E,4 C,4 | E,8- | E,4 G,4 | F,4 G,4 |"^dim." E,8- | E,4!pp! C,4 | %43
w: bril- lig, and|sly- thy|toves|_ the|wabe: mim-|sy,|_ And|
 E,4 F,2 G,2- |!>(! G,2 A,2!>)! !fermata!B,4 |] %45
w: the mome raths|_ out- grabe.|

